docs/.gitbook/assets/icon-buoy-16@dark.svg

<svg width="32" height="32" viewBox="0 0 16 16" fill="none" xmlns="http://www.w3.org/2000/svg">
<rect x="0" y="0" width="16" height="16" fill="#181c1f"/>
<path fill-rule="evenodd" clip-rule="evenodd" d="M3.6167 4.67736C2.9159 5.60043 2.5 6.75165 2.5 8C2.5 9.24835 2.9159 10.3996 3.6167 11.3226L5.41536 9.52398C5.15145 9.07734 5 8.55636 5 8C5 7.44364 5.15145 6.92266 5.41536 6.47602L3.6167 4.67736ZM4.67736 3.6167L6.47602 5.41536C6.92266 5.15145 7.44364 5 8 5C8.55636 5 9.07734 5.15145 9.52398 5.41536L11.3226 3.6167C10.3996 2.9159 9.24835 2.5 8 2.5C6.75165 2.5 5.60043 2.9159 4.67736 3.6167ZM12.3833 4.67736L10.5846 6.47602C10.8486 6.92266 11 7.44364 11 8C11 8.55636 10.8486 9.07734 10.5846 9.52398L12.3833 11.3226C13.0841 10.3996 13.5 9.24835 13.5 8C13.5 6.75165 13.0841 5.60043 12.3833 4.67736ZM11.3226 12.3833L9.52398 10.5846C9.07734 10.8486 8.55636 11 8 11C7.44364 11 6.92266 10.8486 6.47602 10.5846L4.67736 12.3833C5.60043 13.0841 6.75165 13.5 8 13.5C9.24835 13.5 10.3996 13.0841 11.3226 12.3833ZM3.0507 12.9502C4.31742 14.2167 6.06723 15 8 15C11.866 15 15 11.866 15 8C15 4.13401 11.866 1 8 1C4.13401 1 1 4.13401 1 8C1 9.93212 1.78279 11.6814 3.04854 12.948C3.04911 12.9486 3.04968 12.9492 3.05025 12.9497M6.9393 9.06062C7.21075 9.33209 7.58577 9.5 8 9.5C8.82843 9.5 9.5 8.82843 9.5 8C9.5 7.17157 8.82843 6.5 8 6.5C7.17157 6.5 6.5 7.17157 6.5 8C6.5 8.41419 6.66788 8.78918 6.9393 9.06062Z" fill="#fff"/>
</svg>

<svg xmlns="http://www.w3.org/2000/svg" width="32" height="32" fill="none" viewBox="0 0 16 16"><path fill="#181c1f" d="M0 0h16v16H0z"/><path fill="#fff" fill-rule="evenodd" d="M3.617 4.677A5.48 5.48 0 0 0 2.5 8c0 1.248.416 2.4 1.117 3.323l1.798-1.799A3 3 0 0 1 5 8c0-.556.151-1.077.415-1.524zm1.06-1.06 1.799 1.798A3 3 0 0 1 8 5c.556 0 1.077.151 1.524.415l1.799-1.798A5.48 5.48 0 0 0 8 2.5c-1.248 0-2.4.416-3.323 1.117m7.706 1.06-1.798 1.799c.264.447.415.968.415 1.524s-.151 1.077-.415 1.524l1.798 1.799A5.48 5.48 0 0 0 13.5 8c0-1.248-.416-2.4-1.117-3.323m-1.06 7.706-1.799-1.798A3 3 0 0 1 8 11a3 3 0 0 1-1.524-.415l-1.799 1.798A5.48 5.48 0 0 0 8 13.5c1.248 0 2.4-.416 3.323-1.117m-8.272.567a7 7 0 1 0 9.903-9.896 7 7 0 0 0-9.905 9.894zm3.89-3.89A1.5 1.5 0 1 0 9.06 6.94a1.5 1.5 0 0 0-2.122 2.122" clip-rule="evenodd"/></svg>
